X:57
T: Der arme Bauer
N: D0061
O: Europa, Mitteleuropa, Lothringen, Bettringen b. Holvingen
N: Inzipit = Variante zum Lied
R: Bauern - Klage
M: 3/4
L: 1/8
K: G
dd | d2dd_BG | A4
d_e | d3d_BG | A2z
ccc | c3cd_e | d2z
c_BA | G2A2_BA | G3z

@@@ Tune index: 2579
